apps/symbolic/discord-symbolic.svg

<?xml version="1.0" encoding="UTF-8" standalone="no"?>
<svg
   height="16px"
   viewBox="0 0 16 16"
   width="16px"
   version="1.1"
   id="svg4"
   xmlns="http://www.w3.org/2000/svg"
   xmlns:svg="http://www.w3.org/2000/svg">
  <defs
     id="defs8" />
  <path
     d="M 13.553621,2.8444479 C 12.518604,2.3601384 11.409379,2.008623 10.253286,1.809432 10.108774,2.0633036 9.9447332,2.4109126 9.827562,2.6843135 8.5972596,2.5007444 7.3786746,2.5007444 6.171807,2.6843135 6.0585413,2.4109126 5.8866896,2.0633036 5.7421782,1.809432 4.5860847,2.008623 3.4768589,2.3601384 2.441843,2.8483533 0.35228188,6.0041761 -0.21404744,9.0818844 0.06716469,12.11663 1.4536958,13.151646 2.7972639,13.780467 4.1173981,14.190568 4.4415722,13.741411 4.7345016,13.264912 4.9844677,12.761074 4.5079693,12.581411 4.0510001,12.358785 3.6174658,12.097101 c 0.1171712,-0.08202 0.2265314,-0.171852 0.3358915,-0.261682 2.6324566,1.230301 5.4914436,1.230301 8.0926547,0 0.10936,0.08983 0.222626,0.179662 0.335892,0.261682 -0.433535,0.261684 -0.890504,0.48431 -1.367002,0.667879 0.249966,0.499932 0.53899,0.980336 0.867069,1.425588 1.320135,-0.410101 2.663703,-1.038922 4.050234,-2.073938 C 16.264191,8.5975749 15.361969,5.5511124 13.553621,2.8444479 Z M 5.3437941,10.249695 c -0.7928617,0 -1.4412109,-0.7381808 -1.4412109,-1.6364972 0,-0.8983153 0.6366318,-1.6364974 1.4412109,-1.6364974 0.8006726,0 1.4490228,0.7381821 1.4373054,1.6364974 0,0.8983164 -0.6366328,1.6364972 -1.4373054,1.6364972 z m 5.3117809,0 c -0.7889553,0 -1.4373055,-0.7381808 -1.4373055,-1.6364972 0,-0.8983153 0.6366328,-1.6364974 1.4373055,-1.6364974 0.804579,0 1.452929,0.7381821 1.441211,1.6364974 0,0.8983164 -0.636632,1.6364972 -1.441211,1.6364972 z m 0,0"
     fill="#241f31"
     id="path2"
     style="fill:#000000;stroke-width:0.999865" />
</svg>

<?xml version="1.0" encoding="UTF-8"?>
<svg height="16px" viewBox="0 0 16 16" width="16px" xmlns="http://www.w3.org/2000/svg">
    <path d="m 13.554688 2.84375 c -1.035157 -0.484375 -2.144532 -0.835938 -3.300782 -1.035156 c -0.144531 0.253906 -0.308594 0.601562 -0.425781 0.875 c -1.230469 -0.183594 -2.449219 -0.183594 -3.65625 0 c -0.113281 -0.273438 -0.285156 -0.621094 -0.429687 -0.875 c -1.15625 0.199218 -2.265626 0.550781 -3.300782 1.039062 c -2.089844 3.15625 -2.65625 6.234375 -2.3749998 9.269532 c 1.3867188 1.035156 2.7304688 1.664062 4.0507818 2.074218 c 0.324218 -0.449218 0.617187 -0.925781 0.867187 -1.429687 c -0.476563 -0.179688 -0.933594 -0.402344 -1.367187 -0.664063 c 0.117187 -0.082031 0.226562 -0.171875 0.335937 -0.261718 c 2.632813 1.230468 5.492187 1.230468 8.09375 0 c 0.109375 0.089843 0.222656 0.179687 0.335937 0.261718 c -0.433593 0.261719 -0.890624 0.484375 -1.367187 0.667969 c 0.25 0.5 0.539063 0.980469 0.867187 1.425781 c 1.320313 -0.410156 2.664063 -1.039062 4.050782 -2.074218 c 0.332031 -3.519532 -0.570313 -6.566407 -2.378906 -9.273438 z m -8.210938 7.40625 c -0.792969 0 -1.441406 -0.738281 -1.441406 -1.636719 c 0 -0.898437 0.636718 -1.636719 1.441406 -1.636719 c 0.800781 0 1.449219 0.738282 1.4375 1.636719 c 0 0.898438 -0.636719 1.636719 -1.4375 1.636719 z m 5.3125 0 c -0.789062 0 -1.4375 -0.738281 -1.4375 -1.636719 c 0 -0.898437 0.636719 -1.636719 1.4375 -1.636719 c 0.804688 0 1.453125 0.738282 1.441406 1.636719 c 0 0.898438 -0.636718 1.636719 -1.441406 1.636719 z m 0 0" fill="#241f31"/>
</svg>
